;FLAVOR:Marlin
;TIME:811
;Filament used: 0.62733m
;Layer height: 0.28
;MINX:109.826
;MINY:4.243
;MINZ:0.28
;MAXX:183.826
;MAXY:53.879
;MAXZ:10.08
;Generated with Cura_SteamEngine 5.2.1
M82 ;absolute extrusion mode
; Ender 3 S1 Start G-code
G92 E0 ; Reset Extruder
G28 ; Home all axes
G1 Z10.0 F3000 ; Move Z Axis up little to prevent scratching of Heat Bed
G1 X0 Y0

M104 S200
M190 S50.0
M109 S200

G1 X0.1 Y20 Z0.3 F5000.0 ; Move to start position
G1 X0.1 Y200.0 Z0.3 F1500.0 E15 ; Draw the first line
G1 X0.4 Y200.0 Z0.3 F5000.0 ; Move to side a little
G1 X0.4 Y20 Z0.3 F1500.0 E30 ; Draw the second line
G92 E0 ; Reset Extruder
G1 Z2.0 F3000 ; Move Z Axis up little to prevent scratching of Heat Bed
G1 X5 Y20 Z0.3 F5000.0 ; Move over to prevent blob squish

G92 E0
G92 E0
G1 F2400 E-0.8
;LAYER_COUNT:36
;LAYER:0
M107
M204 S2000
G0 F7500 X110.115 Y18.561 Z0.28
M204 S500
;TYPE:SKIRT
G1 F2400 E0
G1 F1500 X110.223 Y18.07 E0.02341
G1 X110.508 Y17.023 E0.07394
G1 X110.627 Y16.658 E0.09181
G1 X110.955 Y15.78 E0.13546
G1 X111.2 Y15.242 E0.16298
G1 X111.366 Y14.902 E0.1806
G1 X111.788 Y14.119 E0.22202
G1 X111.951 Y13.844 E0.2369
G1 X112.554 Y12.934 E0.28774
G1 X112.76 Y12.654 E0.30392
G1 X113.379 Y11.879 E0.35011
G1 X114.023 Y11.194 E0.39389
G1 X114.267 Y10.953 E0.40986
G1 X115.033 Y10.264 E0.45783
G1 X115.357 Y9.999 E0.47732
G1 X116.107 Y9.437 E0.52096
G1 X116.738 Y9.036 E0.55577
G1 X117.103 Y8.821 E0.5755
G1 X117.852 Y8.418 E0.6151
G1 X118.085 Y8.304 E0.62718
G1 X118.888 Y7.95 E0.66805
G1 X119.147 Y7.848 E0.68101
G1 X120.002 Y7.552 E0.72314
G1 X120.254 Y7.476 E0.73539
G1 X121.085 Y7.26 E0.77537
G1 X121.415 Y7.188 E0.7911
G1 X122.496 Y7.002 E0.84218
G1 X123.756 Y6.909 E0.90101
G1 X125.123 Y6.881 E0.96467
G1 X137.498 Y6.879 E1.54091
G1 X140.106 Y6.842 E1.66236
G1 X142.628 Y6.735 E1.7799
G1 X145.123 Y6.558 E1.89637
G1 X147.621 Y6.31 E2.01326
G1 X150.11 Y5.992 E2.1301
G1 X152.619 Y5.598 E2.24836
G1 X155.111 Y5.135 E2.36638
G1 X157.709 Y4.575 E2.49014
G1 X158.248 Y4.469 E2.51571
G1 X159.035 Y4.35 E2.55278
G1 X159.306 Y4.319 E2.56548
G1 X160.299 Y4.251 E2.61182
G1 X160.641 Y4.243 E2.62775
G1 X161.542 Y4.259 E2.66971
G1 X161.815 Y4.275 E2.68245
G1 X162.653 Y4.356 E2.72165
G1 X165.723 Y4.773 E2.86592
G1 X168.245 Y5.043 E2.98402
G1 X170.734 Y5.239 E3.10028
G1 X173.377 Y5.374 E3.22351
G1 X174.311 Y5.462 E3.26719
G1 X175.234 Y5.629 E3.31087
G1 X176.139 Y5.874 E3.35453
G1 X177.02 Y6.195 E3.39819
G1 X177.871 Y6.59 E3.44187
G1 X178.685 Y7.056 E3.48555
G1 X179.456 Y7.589 E3.52919
G1 X180.179 Y8.187 E3.57288
G1 X180.849 Y8.844 E3.61658
G1 X181.46 Y9.555 E3.66023
G1 X182.008 Y10.316 E3.7039
G1 X182.489 Y11.121 E3.74756
G1 X182.9 Y11.964 E3.79123
G1 X183.238 Y12.839 E3.83491
G1 X183.5 Y13.739 E3.87856
G1 X183.685 Y14.659 E3.92225
G1 X183.813 Y16.051 E3.98735
G1 X183.826 Y16.709 E4.01799
G1 X183.819 Y19.342 E4.14059
G1 X183.826 Y20.615 E4.19987
G1 X183.815 Y21.55 E4.24341
G1 X183.762 Y22.486 E4.28707
G1 X183.63 Y23.414 E4.33071
G1 X183.419 Y24.328 E4.37439
G1 X183.13 Y25.221 E4.4181
G1 X182.767 Y26.085 E4.46173
G1 X182.332 Y26.916 E4.50541
G1 X181.827 Y27.707 E4.54911
G1 X181.257 Y28.451 E4.59275
G1 X180.626 Y29.145 E4.63643
G1 X179.937 Y29.782 E4.68012
G1 X179.197 Y30.358 E4.72379
G1 X178.411 Y30.869 E4.76744
G1 X177.584 Y31.311 E4.8111
G1 X176.722 Y31.681 E4.85478
G1 X175.832 Y31.977 E4.89846
G1 X174.92 Y32.195 E4.94212
G1 X174.384 Y32.286 E4.96744
G1 X173.184 Y32.459 E5.02389
G1 X170.687 Y32.853 E5.1416
G1 X168.195 Y33.318 E5.25964
G1 X165.733 Y33.851 E5.37694
G1 X163.345 Y34.437 E5.49143
G1 X160.866 Y35.123 E5.6112
G1 X158.445 Y35.866 E5.72912
G1 X156.082 Y36.665 E5.84528
G1 X153.736 Y37.533 E5.96175
G1 X151.383 Y38.48 E6.07986
G1 X149.056 Y39.495 E6.19807
G1 X146.807 Y40.552 E6.31378
G1 X144.542 Y41.695 E6.43192
G1 X142.342 Y42.884 E6.54837
G1 X140.163 Y44.143 E6.66555
G1 X138.008 Y45.472 E6.78344
G1 X135.898 Y46.856 E6.90094
G1 X133.849 Y48.286 E7.01729
G1 X131.826 Y49.784 E7.1345
G1 X129.615 Y51.52 E7.2654
G1 X128.854 Y52.067 E7.30904
G1 X128.048 Y52.548 E7.35274
G1 X127.205 Y52.958 E7.39639
G1 X126.33 Y53.294 E7.44004
G1 X125.429 Y53.555 E7.48372
G1 X124.509 Y53.739 E7.52741
G1 X123.159 Y53.864 E7.59054
G1 X122.496 Y53.879 E7.62142
G1 X121.391 Y53.878 E7.67287
G1 X120.693 Y53.869 E7.70537
G1 X119.757 Y53.817 E7.74903
G1 X118.828 Y53.685 E7.79272
G1 X117.914 Y53.475 E7.83639
G1 X117.021 Y53.188 E7.88006
G1 X116.156 Y52.825 E7.92374
G1 X115.325 Y52.391 E7.9674
G1 X114.534 Y51.887 E8.01107
G1 X113.789 Y51.317 E8.05475
G1 X113.095 Y50.686 E8.09843
G1 X112.458 Y49.999 E8.14205
G1 X111.881 Y49.259 E8.18575
G1 X111.369 Y48.473 E8.22943
G1 X110.926 Y47.646 E8.27311
G1 X110.555 Y46.785 E8.31677
G1 X110.259 Y45.895 E8.36044
G1 X110.04 Y44.983 E8.40411
G1 X109.899 Y44.056 E8.44778
G1 X109.839 Y43.167 E8.48927
G1 X109.826 Y42.537 E8.51861
G1 X109.826 Y22.422 E9.45525
G1 X109.861 Y20.689 E9.53596
G1 X109.92 Y19.753 E9.57963
G1 X110.115 Y18.561 E9.63587
M204 S2000
G0 F7500 X110.505 Y18.647
M204 S500
G1 F1500 X110.613 Y18.156 E9.65928
G1 X110.888 Y17.147 E9.70798
G1 X111.007 Y16.782 E9.72585
G1 X111.33 Y15.92 E9.76872
G1 X111.56 Y15.417 E9.79447
G1 X111.726 Y15.077 E9.81209
G1 X112.132 Y14.323 E9.85197
G1 X112.295 Y14.048 E9.86685
G1 X112.876 Y13.171 E9.91584
G1 X113.082 Y12.891 E9.93202
G1 X113.681 Y12.143 E9.97664
G1 X114.304 Y11.478 E10.01908
G1 X114.548 Y11.237 E10.03505
G1 X115.286 Y10.574 E10.08124
G1 X115.61 Y10.309 E10.10073
G1 X116.347 Y9.758 E10.14358
G1 X116.941 Y9.381 E10.17634
G1 X117.306 Y9.166 E10.19606
G1 X118.027 Y8.778 E10.23419
G1 X118.26 Y8.664 E10.24627
G1 X119.035 Y8.322 E10.28571
G1 X119.294 Y8.22 E10.29867
G1 X120.117 Y7.934 E10.33924
G1 X120.369 Y7.858 E10.3515
G1 X121.17 Y7.651 E10.39002
G1 X121.5 Y7.579 E10.40575
G1 X122.547 Y7.399 E10.45522
G1 X123.764 Y7.309 E10.51204
G1 X125.131 Y7.281 E10.57571
G1 X137.504 Y7.279 E11.15185
G1 X140.129 Y7.242 E11.27409
G1 X142.637 Y7.135 E11.39098
G1 X145.154 Y6.957 E11.50848
G1 X147.678 Y6.707 E11.62658
G1 X150.186 Y6.386 E11.74431
G1 X152.648 Y5.999 E11.86036
G1 X155.196 Y5.525 E11.98104
G1 X157.793 Y4.966 E12.10474
G1 X158.322 Y4.862 E12.12984
G1 X159.08 Y4.748 E12.16554
G1 X159.351 Y4.717 E12.17824
G1 X160.308 Y4.651 E12.22291
G1 X160.65 Y4.643 E12.23884
G1 X161.518 Y4.658 E12.27926
G1 X161.791 Y4.674 E12.29199
G1 X162.599 Y4.753 E12.3298
G1 X165.659 Y5.169 E12.47359
G1 X168.21 Y5.442 E12.59306
G1 X170.716 Y5.639 E12.71011
G1 X173.357 Y5.774 E12.83324
G1 X174.273 Y5.861 E12.87609
G1 X175.179 Y6.026 E12.91897
G1 X176.067 Y6.27 E12.96185
G1 X176.93 Y6.59 E13.00471
G1 X177.762 Y6.984 E13.04758
G1 X178.557 Y7.449 E13.09046
G1 X179.309 Y7.98 E13.13333
G1 X180.011 Y8.575 E13.17618
G1 X180.66 Y9.229 E13.21908
G1 X181.249 Y9.936 E13.26193
G1 X181.774 Y10.692 E13.30479
G1 X182.232 Y11.491 E13.34767
G1 X182.619 Y12.326 E13.39052
G1 X182.932 Y13.192 E13.4334
G1 X183.169 Y14.082 E13.47629
G1 X183.328 Y14.988 E13.51912
G1 X183.413 Y16.062 E13.56929
G1 X183.426 Y16.708 E13.59937
G1 X183.419 Y19.341 E13.72198
G1 X183.426 Y20.617 E13.78139
G1 X183.415 Y21.544 E13.82456
G1 X183.362 Y22.463 E13.86743
G1 X183.23 Y23.374 E13.91029
G1 X183.019 Y24.27 E13.95315
G1 X182.732 Y25.145 E13.99603
G1 X182.369 Y25.991 E14.0389
G1 X181.935 Y26.803 E14.08177
G1 X181.431 Y27.574 E14.12466
G1 X180.863 Y28.298 E14.16751
G1 X180.234 Y28.97 E14.21037
G1 X179.549 Y29.585 E14.25323
G1 X178.813 Y30.139 E14.29613
G1 X178.032 Y30.626 E14.33899
G1 X177.211 Y31.044 E14.38189
G1 X176.358 Y31.389 E14.42473
G1 X175.478 Y31.658 E14.46758
G1 X174.327 Y31.89 E14.52225
G1 X173.142 Y32.061 E14.578
G1 X170.616 Y32.459 E14.69707
G1 X168.108 Y32.928 E14.81588
G1 X165.666 Y33.456 E14.93222
G1 X163.217 Y34.058 E15.04965
G1 X160.738 Y34.743 E15.16941
G1 X158.347 Y35.477 E15.28587
G1 X155.963 Y36.283 E15.40305
G1 X153.573 Y37.168 E15.52173
G1 X151.222 Y38.114 E15.63973
G1 X148.905 Y39.124 E15.75742
G1 X146.621 Y40.197 E15.87493
G1 X144.365 Y41.336 E15.99261
G1 X142.131 Y42.544 E16.11086
G1 X139.958 Y43.799 E16.22771
G1 X137.8 Y45.13 E16.34577
G1 X135.68 Y46.52 E16.46381
G1 X133.628 Y47.952 E16.58033
G1 X131.564 Y49.48 E16.69991
G1 X129.368 Y51.205 E16.82994
G1 X128.62 Y51.742 E16.87282
G1 X127.828 Y52.212 E16.9157
G1 X126.999 Y52.611 E16.95854
G1 X126.138 Y52.937 E17.00141
G1 X125.252 Y53.187 E17.04428
G1 X124.347 Y53.359 E17.08717
G1 X123.147 Y53.464 E17.14326
G1 X122.496 Y53.479 E17.17358
G1 X121.396 Y53.478 E17.2248
G1 X120.698 Y53.469 E17.25731
G1 X119.779 Y53.417 E17.30017
G1 X118.868 Y53.286 E17.34303
G1 X117.972 Y53.076 E17.38588
G1 X117.097 Y52.789 E17.42876
G1 X116.25 Y52.427 E17.47165
G1 X115.438 Y51.993 E17.51452
G1 X114.667 Y51.491 E17.55736
G1 X113.942 Y50.923 E17.60025
G1 X113.269 Y50.294 E17.64314
G1 X112.654 Y49.61 E17.68597
G1 X112.1 Y48.875 E17.72883
G1 X111.612 Y48.094 E17.77171
G1 X111.193 Y47.274 E17.81459
G1 X110.847 Y46.421 E17.85745
G1 X110.577 Y45.541 E17.90031
G1 X110.384 Y44.64 E17.94322
G1 X110.27 Y43.727 E17.98606
G1 X110.239 Y43.156 E18.01269
G1 X110.226 Y42.537 E18.04152
G1 X110.228 Y22.196 E18.98868
G1 X110.26 Y20.698 E19.05845
G1 X110.32 Y19.779 E19.10133
G1 X110.505 Y18.647 E19.15474
M204 S2000
G0 F7500 X110.896 Y18.733
M204 S500
G1 F1500 X111.004 Y18.242 E19.17815
G1 X111.268 Y17.271 E19.22501
G1 X111.387 Y16.906 E19.24289
G1 X111.705 Y16.061 E19.28493
G1 X111.919 Y15.593 E19.30889
G1 X112.085 Y15.253 E19.32651
G1 X112.477 Y14.527 E19.36493
G1 X112.64 Y14.252 E19.37981
G1 X113.198 Y13.408 E19.42692
G1 X113.404 Y13.128 E19.44311
G1 X113.983 Y12.404 E19.48628
G1 X114.585 Y11.763 E19.52722
G1 X114.829 Y11.522 E19.54319
G1 X115.539 Y10.884 E19.58764
G1 X115.863 Y10.619 E19.60713
G1 X116.587 Y10.078 E19.64922
G1 X117.144 Y9.725 E19.67992
G1 X117.509 Y9.51 E19.69965
G1 X118.203 Y9.137 E19.73633
G1 X118.436 Y9.023 E19.74841
G1 X119.181 Y8.694 E19.78634
G1 X119.44 Y8.592 E19.7993
G1 X120.233 Y8.317 E19.83838
G1 X120.485 Y8.241 E19.85064
G1 X121.256 Y8.041 E19.88773
G1 X121.586 Y7.969 E19.90345
G1 X122.598 Y7.795 E19.95127
G1 X123.772 Y7.709 E20.00608
G1 X125.348 Y7.679 E20.07948
G1 X137.51 Y7.679 E20.64579
G1 X140.116 Y7.642 E20.76715
G1 X142.684 Y7.533 E20.88684
G1 X145.186 Y7.356 E21.00363
G1 X147.698 Y7.107 E21.12117
G1 X150.261 Y6.779 E21.24149
G1 X152.746 Y6.388 E21.35863
G1 X155.248 Y5.923 E21.47712
G1 X157.877 Y5.357 E21.60235
G1 X158.396 Y5.255 E21.62698
G1 X159.126 Y5.145 E21.66135
G1 X159.397 Y5.114 E21.67405
G1 X160.317 Y5.051 E21.71699
G1 X160.659 Y5.043 E21.73292
G1 X161.495 Y5.057 E21.77185
G1 X161.768 Y5.073 E21.78459
G1 X162.545 Y5.149 E21.82094
G1 X165.633 Y5.569 E21.96606
G1 X168.134 Y5.836 E22.08317
G1 X170.703 Y6.039 E22.20317
G1 X173.336 Y6.173 E22.32593
G1 X174.235 Y6.259 E22.36798
G1 X175.123 Y6.424 E22.41004
G1 X175.993 Y6.667 E22.4521
G1 X176.838 Y6.986 E22.49416
G1 X177.651 Y7.378 E22.53619
G1 X178.427 Y7.841 E22.57826
G1 X179.158 Y8.371 E22.62031
G1 X179.84 Y8.963 E22.66236
G1 X180.467 Y9.613 E22.70441
G1 X181.034 Y10.316 E22.74647
G1 X181.536 Y11.067 E22.78853
G1 X181.97 Y11.859 E22.83058
G1 X182.332 Y12.686 E22.87262
G1 X182.62 Y13.542 E22.91467
G1 X182.831 Y14.42 E22.95672
G1 X182.963 Y15.314 E22.9988
G1 X183.013 Y16.073 E23.03422
G1 X183.026 Y16.707 E23.06375
G1 X183.019 Y19.34 E23.18635
G1 X183.026 Y20.619 E23.24591
G1 X183.015 Y21.538 E23.2887
G1 X182.963 Y22.44 E23.33077
G1 X182.831 Y23.333 E23.37281
G1 X182.62 Y24.212 E23.4149
G1 X182.333 Y25.068 E23.45694
G1 X181.971 Y25.895 E23.49898
G1 X181.537 Y26.687 E23.54103
G1 X181.035 Y27.438 E23.58309
G1 X180.469 Y28.142 E23.62515
G1 X179.842 Y28.792 E23.66721
G1 X179.161 Y29.385 E23.70926
G1 X178.429 Y29.914 E23.75131
G1 X177.654 Y30.378 E23.79337
G1 X176.841 Y30.77 E23.8354
G1 X175.996 Y31.09 E23.87747
G1 X175.126 Y31.333 E23.91953
G1 X174.27 Y31.494 E23.96009
G1 X173.089 Y31.664 E24.01565
G1 X170.558 Y32.064 E24.13497
G1 X168.022 Y32.537 E24.25509
G1 X165.558 Y33.07 E24.37248
G1 X163.111 Y33.671 E24.48981
G1 X160.661 Y34.348 E24.60816
G1 X158.207 Y35.102 E24.7277
G1 X155.833 Y35.905 E24.8444
G1 X153.402 Y36.804 E24.96509
G1 X151.082 Y37.738 E25.08154
G1 X148.754 Y38.753 E25.1998
G1 X146.45 Y39.836 E25.31835
G1 X144.173 Y40.985 E25.43711
G1 X141.948 Y42.188 E25.55489
G1 X139.754 Y43.455 E25.67286
G1 X137.593 Y44.788 E25.79109
G1 X135.437 Y46.202 E25.91115
G1 X133.383 Y47.635 E26.02777
G1 X131.346 Y49.143 E26.14578
G1 X129.121 Y50.891 E26.27753
G1 X128.387 Y51.416 E26.31955
G1 X127.609 Y51.875 E26.36162
G1 X126.794 Y52.264 E26.40367
G1 X125.947 Y52.578 E26.44573
G1 X125.076 Y52.817 E26.48779
G1 X124.187 Y52.977 E26.52985
G1 X123.135 Y53.064 E26.579
G1 X122.496 Y53.079 E26.60876
G1 X121.401 Y53.078 E26.65975
G1 X120.703 Y53.069 E26.69226
G1 X119.802 Y53.018 E26.73428
G1 X118.908 Y52.886 E26.77636
G1 X118.03 Y52.677 E26.81838
G1 X117.173 Y52.39 E26.86047
G1 X116.346 Y52.029 E26.90248
G1 X115.553 Y51.596 E26.94455
G1 X114.802 Y51.095 E26.98659
G1 X114.098 Y50.529 E27.02865
G1 X113.447 Y49.903 E27.07071
G1 X112.854 Y49.222 E27.11276
G1 X112.324 Y48.491 E27.1548
G1 X111.86 Y47.716 E27.19686
G1 X111.466 Y46.903 E27.23893
G1 X111.146 Y46.059 E27.28096
G1 X110.902 Y45.189 E27.32303
G1 X110.736 Y44.301 E27.3651
G1 X110.639 Y43.146 E27.41907
G1 X110.626 Y42.537 E27.44743
G1 X110.628 Y22.204 E28.39422
G1 X110.66 Y20.706 E28.46399
G1 X110.72 Y19.805 E28.50604
G1 X110.896 Y18.733 E28.55662
M204 S2000
G1 F2400 E27.75662
;MESH:stereo mount piece for testing stand.3mf
G0 F7500 X120.161 Y21.343
G0 X122.225 Y42.278
M204 S500
;TYPE:WALL-INNER
G1 F2400 E28.55662
G1 F1500 X122.226 Y23.928 E29.41108
G1 X122.245 Y23.493 E29.43135
G1 X122.384 Y22.899 E29.45976
G1 X122.585 Y22.441 E29.48305
G1 X122.736 Y22.175 E29.49729
G1 X122.878 Y21.965 E29.50909
G1 X123.078 Y21.721 E29.52378
G1 X123.432 Y21.369 E29.54703
G1 X123.8 Y21.112 E29.56793
G1 X124.071 Y20.96 E29.5824
G1 X124.352 Y20.835 E29.59672
G1 X124.621 Y20.741 E29.60999
G1 X125.069 Y20.631 E29.63147
G1 X125.539 Y20.603 E29.65339
G1 X158.01 Y20.603 E31.16538
G1 F1503.8 X158.224 Y20.642 E31.17548
G1 F1534.5 X158.332 Y20.705 E31.18117
G1 F1600 X158.601 Y20.989 E31.19825
G1 F1643.8 X158.868 Y21.246 E31.214
G1 X159.199 Y21.478 E31.23117
G1 X159.71 Y21.746 E31.25569
G1 X160.289 Y21.9 E31.28114
G1 X160.693 Y21.947 E31.29843
G1 X161.135 Y21.936 E31.31721
G1 F1657.5 X161.674 Y21.836 E31.34031
G1 X162.094 Y21.677 E31.35924
G1 F1648.4 X162.44 Y21.485 E31.37601
G1 F1652.9 X162.81 Y21.219 E31.39526
G1 F1626 X163.187 Y20.864 E31.41751
G1 F1604.3 X163.359 Y20.831 E31.42513
G1 F1617.3 X170.459 Y20.824 E31.73177
G1 F1470.6 X170.826 Y20.785 E31.7493
G1 F1481.5 X171.326 Y20.826 E31.77295
G1 F1648.4 X172.244 Y20.826 E31.81185
G1 X172.244 Y20.644 E31.81956
G1 X172.244 Y20.462 E31.82727
G1 X171.326 Y20.461 E31.86617
G1 F1481.5 X170.957 Y20.382 E31.88396
G1 F1345.3 X170.831 Y20.272 E31.89265
G1 X170.695 Y20.382 E31.90173
G1 F1470.6 X170.427 Y20.456 E31.91493
G1 F1617.3 X163.327 Y20.463 E32.22157
G1 F1570.7 X163.074 Y20.477 E32.23284
G1 F1595.7 X162.618 Y20.908 E32.2603
G1 F1666.7 X162.312 Y21.138 E32.27634
G1 X161.689 Y21.464 E32.30581
G1 F1657.5 X160.968 Y21.583 E32.33661
G1 F1648.4 X160.42 Y21.553 E32.35986
G1 F1639.3 X160.167 Y21.493 E32.37094
G1 X159.865 Y21.406 E32.38433
G1 F1648.4 X159.34 Y21.143 E32.40921
G1 X158.921 Y20.802 E32.4321
G1 F1612.9 X158.536 Y20.351 E32.45778
G1 F1558.4 X158.283 Y19.86 E32.48254
G1 F1542.4 X158.096 Y19.173 E32.51478
G1 F1562.5 X158.135 Y18.471 E32.54621
G1 F1612.9 X158.308 Y17.895 E32.57225
G1 F1648.4 X158.551 Y17.417 E32.59497
G1 F1634.9 X158.729 Y17.185 E32.60747
G1 F1639.3 X158.938 Y16.94 E32.62119
G1 F1652.9 X159.369 Y16.601 E32.64436
G1 X159.964 Y16.294 E32.67265
G1 X160.677 Y16.179 E32.70317
G1 F1639.3 X161.014 Y16.19 E32.71753
G1 F1648.4 X161.27 Y16.212 E32.72842
G1 F1662 X161.777 Y16.349 E32.75049
G1 X162.275 Y16.595 E32.77383
G1 F1666.7 X162.62 Y16.852 E32.79186
G1 F1634.9 X163.058 Y17.28 E32.81803
G1 F1621.6 X163.46 Y17.297 E32.83536
G1 F1648.4 X170.326 Y17.297 E33.12629
G1 F1481.5 X170.695 Y17.376 E33.14408
G1 F1345.3 X170.821 Y17.486 E33.15277
G1 X170.957 Y17.376 E33.16185
G1 F1470.6 X171.225 Y17.302 E33.17505
G1 F1634.9 X172.244 Y17.297 E33.21859
